!!!COM:	Praetorius, Michael
!!!OTL:	Der Tag der ist so freudenreich
**kern	**kern	**kern	**kern
*ICvox	*ICvox	*ICvox	*ICvox
*I"Bassus	*I"Tenor	*I"Altus	*I"Diskantus
*clefF4	*clefGv2	*clefG2	*clefG2
*k[]	*k[]	*k[]	*k[]
*M2/2	*M2/2	*M2/2	*M2/2
!!Meter Interpreted, Nat Condit-Schultz, 2018, Free
*met(c)	*met(c)	*met(c)	*met(c)
2r	2r	2r	2r
4r	4r	4r	4r
4c	4e	4g	4cc
2c	2e	2g	2cc
2A	2e	2a	2cc
2G	2g	2b	2dd
2c	2g	2cc	2ee
4F	4a	2.cc	4ff
4c	4g	.	4ee
4F	4a	.	4ff
4G	4g	4b	4dd
2A	2e	2a	2cc
=	=	=	=
4r	4r	4r	4r
4E	4g	4cc	4ee
2G	2g	2b	2dd
2A	2e	2a	2cc
2D	2d	2f#	2a
2G	2d	2g	2b
(2A	2c	(2e	(2cc
2G)	2B	2g)	2dd)
2C	2e	2g	2cc
=:|	=:|	=:|	=:|
4r	4r	4r	4r
4c	4e	4g	4cc
2c	2e	2g	2gg
2e	2g	2cc	2gg
2d	2f	2a	2aa
2G	2d	2b	2gg
2C	2g	2cc	2ee
2D	2d	2a	2ff
2G	2d	2b	2gg
=	=	=	=
4r	4r	4r	4r
4c	4e	4cc	4gg
2c	2e	2cc	2gg
2c	2e	2cc	2gg
2A	2e	2cc	2aa
2B	2d	2b	2gg
2c	2c	2g	2ee
2G	2d	2b	2dd
2C	2e	2g	2cc
=	=	=	=
4r	4r	4r	4r
4C	4e	4g	4cc
2F	2c	2f	2a
2D	2d	2f	2b
2C	2e	2g	2cc
2D	2d	2f	2a
4E	4B	(2e	2g
4C	4c	.	.
2D	2A	2d)	2f#
1G	1B	1d	1g
=	=	=	=
2F	2c	2a	2cc
2A	2c	2e	2cc
2G	2B	2g	2dd
2E	2c	2g	2ee
4D	4A	2.a	4ffn
4A	2c	.	4ee
4F	.	.	4ff
4G	4B	4g	4dd
1A	1c	1e	1cc
=	=	=	=
2D	2f	2a	2dd
2E	2e	2g	2cc
2F	2c	2f	2a
2D	2d	2f	2b
2C	2G	2e	2cc
2D	2d	2f	2a
2G	2B	2d	2g
=	=	=	=
4r	4r	4r	4r
4G	4d	4g	4b
2F	2A	2c	2a
2D	2A	2d	2f
2F	2A	2c	2a
2E	2G	2g	2b
2A	(2c	(2e	2cc
2G	2B)	2g)	2dd
00C	00e	00g	00cc
==	==	==	==
*-	*-	*-	*-
